X:33
T:La ra?o latino
R:Chanson
O:France
A:Provence
C:Musico de C.-A. Mager
C:Pou?mo de Frederi Mistral
M:C
L:1/8
K:Bb
z4||!segno!z !f!F G>F|B2B2 c2e2|d4-d/z/ B A B|
w:Au-bou-ro te ra-?o la-ti-no, Sou-to la
G2 c2 {de}d3c|B4 zA B c|d2 d2 =e3A|f4- f/ =e f> g|
w: ca-po dou sou-l?u! Lou ra-sin brun boui dins la ti-no, Lou vin de
!ff!.a z c2 Lg7/ =e/|f4-f z z2|!p!e2 d> e c2-c z|f2 =e>f d2-dz|
w:Di?u gis-cla-ra l?u._ Au-bou-ro te,_ au-bou-ro te,_
!f!LB2 c> d e> d e> f|!ff!g4-g z z2|!ff!Lf4-f7/ A/|!ff!HLB4 z4!fine!|]
w:Sou-to la ca-po dou sou-l?u_ Dou_ Sou-l?u
z4!p!z B A G|d2 d2 e2 c2|d4-.d/z/ G G B|A2 d2 A2> A2|
D4 zB A G|d2 d2 f2> e2|(e2 d)z z G A B|
F2 B2 !f!{cd}c2> B2|B4 z^F F G|A2 A2 c2> B2|
(A2 G/) z/!f! G G> G G G!ff!|L[g6 G6] [a2A2]!ff!|L[a4A4] z2 !mf!d2|
d2 d2 ^c d e> f|(f2 e) z z G G A|LB2 LB2 Lc2 Le2!f!|Hd4!D.C.!S||
#
$
